assets/web/icons/visibility-on.svg

<svg width="24" height="24" viewBox="0 0 24 24" fill="none" xmlns="http://www.w3.org/2000/svg">
<path d="M12 16C13.25 16 14.3125 15.5625 15.1875 14.6875C16.0625 13.8125 16.5 12.75 16.5 11.5C16.5 10.25 16.0625 9.1875 15.1875 8.3125C14.3125 7.4375 13.25 7 12 7C10.75 7 9.68755 7.4375 8.81255 8.3125C7.93755 9.1875 7.50005 10.25 7.50005 11.5C7.50005 12.75 7.93755 13.8125 8.81255 14.6875C9.68755 15.5625 10.75 16 12 16ZM12 14.2C11.25 14.2 10.6125 13.9375 10.0875 13.4125C9.56255 12.8875 9.30005 12.25 9.30005 11.5C9.30005 10.75 9.56255 10.1125 10.0875 9.5875C10.6125 9.0625 11.25 8.8 12 8.8C12.75 8.8 13.3875 9.0625 13.9125 9.5875C14.4375 10.1125 14.7 10.75 14.7 11.5C14.7 12.25 14.4375 12.8875 13.9125 13.4125C13.3875 13.9375 12.75 14.2 12 14.2ZM12 19C9.68338 19 7.56672 18.3875 5.65005 17.1625C3.73338 15.9375 2.28338 14.2833 1.30005 12.2C1.25005 12.1167 1.21672 12.0125 1.20005 11.8875C1.18338 11.7625 1.17505 11.6333 1.17505 11.5C1.17505 11.3667 1.18338 11.2375 1.20005 11.1125C1.21672 10.9875 1.25005 10.8833 1.30005 10.8C2.28338 8.71667 3.73338 7.0625 5.65005 5.8375C7.56672 4.6125 9.68338 4 12 4C14.3167 4 16.4334 4.6125 18.35 5.8375C20.2667 7.0625 21.7167 8.71667 22.7 10.8C22.75 10.8833 22.7834 10.9875 22.8 11.1125C22.8167 11.2375 22.825 11.3667 22.825 11.5C22.825 11.6333 22.8167 11.7625 22.8 11.8875C22.7834 12.0125 22.75 12.1167 22.7 12.2C21.7167 14.2833 20.2667 15.9375 18.35 17.1625C16.4334 18.3875 14.3167 19 12 19ZM12 17C13.8834 17 15.6125 16.5042 17.1875 15.5125C18.7625 14.5208 19.9667 13.1833 20.8 11.5C19.9667 9.81667 18.7625 8.47917 17.1875 7.4875C15.6125 6.49583 13.8834 6 12 6C10.1167 6 8.38755 6.49583 6.81255 7.4875C5.23755 8.47917 4.03338 9.81667 3.20005 11.5C4.03338 13.1833 5.23755 14.5208 6.81255 15.5125C8.38755 16.5042 10.1167 17 12 17Z" fill="currentColor"/>
</svg>

<svg xmlns="http://www.w3.org/2000/svg" width="24" height="24" fill="currentColor" viewBox="0 0 24 24">
  <path d="M12 16c1.25 0 2.313-.438 3.188-1.313.874-.874 1.312-1.937 1.312-3.187 0-1.25-.438-2.313-1.313-3.188C14.313 7.439 13.25 7 12 7c-1.25 0-2.312.438-3.187 1.313C7.938 9.187 7.5 10.25 7.5 11.5c0 1.25.438 2.313 1.313 3.188C9.688 15.562 10.75 16 12 16Zm0-1.8c-.75 0-1.387-.262-1.912-.787A2.604 2.604 0 0 1 9.3 11.5c0-.75.263-1.387.787-1.912A2.604 2.604 0 0 1 12 8.8c.75 0 1.387.262 1.912.787.525.526.788 1.163.788 1.913s-.262 1.387-.787 1.912A2.604 2.604 0 0 1 12 14.2Zm0 4.8c-2.317 0-4.433-.613-6.35-1.837-1.917-1.226-3.367-2.88-4.35-4.963a.812.812 0 0 1-.1-.313 2.93 2.93 0 0 1 0-.774.812.812 0 0 1 .1-.313c.983-2.083 2.433-3.738 4.35-4.963C7.567 4.614 9.683 4 12 4c2.317 0 4.433.612 6.35 1.838 1.917 1.224 3.367 2.879 4.35 4.962a.81.81 0 0 1 .1.313 2.925 2.925 0 0 1 0 .774.81.81 0 0 1-.1.313c-.983 2.083-2.433 3.738-4.35 4.963C16.433 18.387 14.317 19 12 19Zm0-2a9.544 9.544 0 0 0 5.188-1.488A9.773 9.773 0 0 0 20.8 11.5a9.773 9.773 0 0 0-3.613-4.013A9.544 9.544 0 0 0 12 6a9.545 9.545 0 0 0-5.187 1.487A9.773 9.773 0 0 0 3.2 11.5a9.773 9.773 0 0 0 3.613 4.012A9.544 9.544 0 0 0 12 17Z"/>
</svg>
